!!!COM: Schiørring, Niels
!!!CDT: 1743-1798
!!!OPR@@DA: Choral-Bog
!!!ONM: 62
!!!OTL@@DA: Litanie: Det mindre.
**kern	**fb	**kern	**kern	**kern	**kern	**kern	**kern	**kern
*part6	*part6	*part6	*part5	*part5	*part4	*part3	*part2	*part1
*staff8	*	*staff7	*staff6	*staff5	*staff4	*staff3	*staff2	*staff1
*clefF4	*	*clefC1	*clefF4	*clefC1	*clefF4	*clefC4	*clefC3	*clefC1
*mclefF4	*	*mclefG2	*mclefF4	*mclefG2	*mclefF4	*mclefGv2	*mclefG2	*mclefG2
*k[b-]	*	*k[b-]	*k[b-]	*k[b-]	*k[b-]	*k[b-]	*k[b-]	*k[b-]
*F:	*	*F:	*F:	*F:	*F:	*F:	*F:	*F:
*M4/4	*	*M4/4	*M4/4	*M4/4	*M4/4	*M4/4	*M4/4	*M4/4
*met(c)	*	*met(c)	*met(c)	*met(c)	*met(c)	*met(c)	*met(c)	*met(c)
*MM180	*	*MM180	*MM180	*MM180	*MM180	*MM180	*MM180	*MM180
*	*above	*	*	*	*	*	*	*
*	*slash	*	*	*	*	*	*	*
=1	=1	=1	=1	=1	=1	=1	=1	=1
*	*	*	*^	*^	*	*	*	*
1F	.	1f	1A	1F	1f	1c	1F	1A	1c	1f
=2	=2	=2	=2	=2	=2	=2	=2	=2	=2	=2
2D	.	2f	2A	2D	2f	2d	2D	2A	2d	2f
2BB-	.	2f	2B-	2BB-	2f	2d	2BB-	2B-	2d	2f
=3	=3	=3	=3	=3	=3	=3	=3	=3	=3	=3
2GG	.	1gM	2B->	2GG	1g	2d	(2GG	(2B-	(2d	1gM
2C	.	.	2c>	2C	.	2e	2C)	2c)	2e)	.
=4	=4	=4	=4	=4	=4	=4	=4	=4	=4	=4
*	*	*	*	*	*	*	*^	*	*	*
2FF;	.	2a;	2c>	2FF;	2a;	2f	2F;	2FF	2c;	2f;	2a;
*	*	*	*	*	*	*	*v	*v	*	*	*
2AA	6	2a	2c>	2AA	2a	2f	2AA	2c	2f	2a
=5	=5	=5	=5	=5	=5	=5	=5	=5	=5	=5
4BB-	6	2g	2B->	4BB-	2g	2d	4BB-	2B-	2d	2g
4C	.	.	.	4C	.	.	4C	.	.	.
2D	#	2f#Xm	2A	2D	2f#Xm	2d	2D	2Am	2d	2f#Xm
=6	=6	=6	=6	=6	=6	=6	=6	=6	=6	=6
1GG;	.	1g;	1B->	1GG;	1g;	1d	1GG;	1B-;	1d;	1g;
=7	=7	=7	=7	=7	=7	=7	=7	=7	=7	=7
1C	.	1g	1c>	1C	1g	1e	1C	1c	1e	1g
=8	=8	=8	=8	=8	=8	=8	=8	=8	=8	=8
2E	6	2g	2c>	2E	2g	2e	2E	2c	2e	2g
2C	.	2gM	2c>	2C	2g	2e	2C	2c	2em	2gM
=9	=9	=9	=9	=9	=9	=9	=9	=9	=9	=9
*	*	*	*	*	*	*	*^	*	*	*
2FF;	.	2a;	2c>	2FF;	2a;	2f	2F;	2FF	2c;	2f;	2a;
*	*	*	*	*	*	*	*v	*v	*	*	*
2D	.	2a	[2d	2D	2a	2f	2D	[2d	2f	2a
=10	=10	=10	=10	=10	=10	=10	=10	=10	=10	=10
2E-X	7	2g	4d]	2E-X	2g	2g	2E-X	4d]	2g	2g
.	6	.	4c	.	.	.	.	4c	.	.
2D	7 #	2f#Xm	2c	2D	2f#Xm	2d	2D	2c	2d	2f#Xm
=11	=11	=11	=11	=11	=11	=11	=11	=11	=11	=11
1GG;	.	1g;	1B->	1GG;	1g;	1d	1GG;	1B-;	1d;	1g;
=12	=12	=12	=12	=12	=12	=12	=12	=12	=12	=12
2AA	6	2f	2A	2AA	2f	2c	2AA	2c	2c	2f
[2BB-	5	4f	[2F	[2BB-	4f	2d	[2BB-	4d	4f	4f
.	.	4f	.	.	4f	.	.	4d	4f	4f
=13	=13	=13	=13	=13	=13	=13	=13	=13	=13	=13
2BB-]	6 5	2g	2F]	2BB-]	2g	2d	2BB-]	2d	2f	2g
2C	.	2gM	4E	2C	2gM	2c	2C	2c	2em	2gM
.	.	.	4B-	.	.	.	.	.	.	.
=14	=14	=14	=14	=14	=14	=14	=14	=14	=14	=14
*	*	*	*	*	*	*	*^	*	*	*
2FF;	.	2a;	2A>	2FF;	2a;	2c	2F;	2FF	2c;	2f;	2a;
*	*	*	*	*	*	*	*v	*v	*	*	*
2C	8	2g	4c	2C	2g	2e	2C	(4c	2e	2g
.	7	.	4B-	.	.	.	.	4B-)	.	.
=15	=15	=15	=15	=15	=15	=15	=15	=15	=15	=15
2D	.	1f	2A	2D	1f	2d	(2D	1A	(2d	1f
2AA	6	.	2F	2AA	.	2c	2AA)	.	2c)	.
=16	=16	=16	=16	=16	=16	=16	=16	=16	=16	=16
2GG	6	1em	1G	2GG	1em	1B-	(2GG	1B-	(2B-	1em
2C	7	.	.	2C	.	.	2C)	.	2c)	.
=17	=17	=17	=17	=17	=17	=17	=17	=17	=17	=17
*	*	*	*	*	*	*	*^	*	*	*
1FF;	.	1f;	1A>	1F; 1FF	1f;	1c	1F;	1FF	1A;	1c;	1f;
*	*	*	*v	*v	*	*	*v	*v	*	*	*
*	*	*	*	*v	*v	*	*	*	*
==	==	==	==	==	==	==	==	==
*-	*-	*-	*-	*-	*-	*-	*-	*-
!!!system-decoration: {(s1,s2,s3,s4)}{(s5,s6)}{(s7,s8)}
!!!RDF**kern: > = above
!!!RDF**kern: < = below
!!!AGN: chorale
!!!EED: Derek Remeš
!!!EED2: Victor Phan
!!!END: 2023/11/28
!!!ENC: Wolfgang Drescher
!!!EEV: 2024/01/09
!!!title: @{ONM}. @{OTL}
!!!verovio: mnumInterval 1